X: 39382
T: Tansey's Fancy
R: jig
M: 6/8
K: Gmajor
|:BA/B/B AGA|BdB B2G|B/A/GB dBG|AA/B/A DFA|
BGB AFD|GBd gg/a/g|edc BB/c/A|1 BGF G2D:|2 BGF G3||
|:dcB gdB|GBd gdB|cAc ecA|GBd gdc|
BG/A/B AFA|GBd g2g|edc BcA|BGF G3:|

